X:1
T:Title
%%score { 1 | 2 }
L:1/8
M:4/4
K:Bb
V:1 treble nm="Grand Piano"
V:2 bass 
V:1
 z4 z2[Q:1/4=108] [DF]2 | [DF]2 [DF]2 [DB]2 F2 | G4 B4 | F6 F2 | G2 [CFA]2 [B,FB]2 [DFB]2 | %5
 [Fd]4 [=EB]4 |[M:3/4] [Fc]6 |[M:1/4] [EF]2 |[M:4/4] [Dd]2 [Fd]2 [^Fd]2 [Fc]2 | [GB]4 [F_A]4 | %10
 G6 B2 | A2 G2 F2 B2 | B4 c4 |[M:3/4] [DFB]6 |] %14
V:2
 z4 z2 [B,,B,]2 | [B,,B,]2 [B,,B,]2 [B,,B,]2 [D,B,]2 | [E,B,E]4 [G,B,E]4 | [B,D]6 [D,B,]2 | %4
 [E,B,E]2 E,2 D,2 B,,2 | [G,B,]4 [C,G,]4 |[M:3/4] [F,A,]6 |[M:1/4] [F,A,]2 | %8
[M:4/4] [B,,B,]2 [B,,B,]2 [D,A,]2 [D,D]2 | [G,D]4 [D,B,]4 | [E,B,E]6 [E,G,B,]2 | %11
 [=E,A,C]2 [E,B,_D]2 [F,B,=D]2 [F,B,D]2 | [F,DF]4 [F,EF]4 |[M:3/4] B,,6 |] %14

